symbols/web/aod/materialsymbolssharp/aod_wght500_24px.svg

<svg xmlns="http://www.w3.org/2000/svg" height="24" width="24"><path d="M8.1 11.5V10H15.9V11.5ZM9.1 14.5V13H14.9V14.5ZM4.825 23.175V0.825H19.175V23.175ZM7.1 17.9H16.9V6.1H7.1ZM7.1 20.9H16.9V19.9H7.1ZM7.1 4.1H16.9V3.1H7.1ZM7.1 4.1V3.1V4.1ZM7.1 20.9V19.9V20.9Z"/></svg>

<svg xmlns="http://www.w3.org/2000/svg" height="24" width="24"><path d="M8.1 11.5V10h7.8v1.5Zm1 3V13h5.8v1.5Zm-4.275 8.675V.825h14.35v22.35ZM7.1 17.9h9.8V6.1H7.1Zm0 3h9.8v-1H7.1Zm0-16.8h9.8v-1H7.1Zm0 0v-1 1Zm0 16.8v-1 1Z"/></svg>
